X:71
T:Speed the Plough. TJD.71
M:2/2
L:1/8
Q:1/2=80
S:T.J.Dixon MS2, Lincolnshire, early 19thC
R:.hornpipe
A:Lincolnshire, Holton le Moor
Z:vmp.R.Greig2010
K:Bb
BABd f>gf>d|f>gf>d f>gf>d|e>fe>c d>ed>B|GccB ABcA|!
B>AB>d f>gf>d|f>gf>d f>gf>d|e>fe>c d>ed>B|GcBA B2B2:|!
|:bBbB bBbB|bBaB gBfB|e>fe>c d>fd>B|GcBAB2B2|!
bBbB bBbB|bBaB gBfB|e>fe>c d>fd>B|GcBAB2B2:|

